public/paper.svg

<svg stroke="currentColor" fill="currentColor" stroke-width="0" viewBox="0 0 512 512" height="200px" width="200px" xmlns="http://www.w3.org/2000/svg"><path d="M96 96c0-35.3 28.7-64 64-64l288 0c35.3 0 64 28.7 64 64l0 320c0 35.3-28.7 64-64 64L80 480c-44.2 0-80-35.8-80-80L0 128c0-17.7 14.3-32 32-32s32 14.3 32 32l0 272c0 8.8 7.2 16 16 16s16-7.2 16-16L96 96zm64 24l0 80c0 13.3 10.7 24 24 24l112 0c13.3 0 24-10.7 24-24l0-80c0-13.3-10.7-24-24-24L184 96c-13.3 0-24 10.7-24 24zm208-8c0 8.8 7.2 16 16 16l48 0c8.8 0 16-7.2 16-16s-7.2-16-16-16l-48 0c-8.8 0-16 7.2-16 16zm0 96c0 8.8 7.2 16 16 16l48 0c8.8 0 16-7.2 16-16s-7.2-16-16-16l-48 0c-8.8 0-16 7.2-16 16zM160 304c0 8.8 7.2 16 16 16l256 0c8.8 0 16-7.2 16-16s-7.2-16-16-16l-256 0c-8.8 0-16 7.2-16 16zm0 96c0 8.8 7.2 16 16 16l256 0c8.8 0 16-7.2 16-16s-7.2-16-16-16l-256 0c-8.8 0-16 7.2-16 16z"></path></svg>

<?xml version="1.0" encoding="UTF-8" standalone="no"?>
<!DOCTYPE svg PUBLIC "-//W3C//DTD SVG 1.1//EN" "http://www.w3.org/Graphics/SVG/1.1/DTD/svg11.dtd">
<svg width="100%" height="100%" viewBox="0 0 200 175" version="1.1" xmlns="http://www.w3.org/2000/svg" xmlns:xlink="http://www.w3.org/1999/xlink" xml:space="preserve" xmlns:serif="http://www.serif.com/" style="fill-rule:evenodd;clip-rule:evenodd;stroke-linejoin:round;stroke-miterlimit:2;">
    <g transform="matrix(1,0,0,1,0,-12.5)">
        <g transform="matrix(0.390625,0,0,0.390625,0,0)">
            <path d="M96,96C96,60.7 124.7,32 160,32L448,32C483.3,32 512,60.7 512,96L512,416C512,451.3 483.3,480 448,480L80,480C35.8,480 0,444.2 0,400L0,128C0,110.3 14.3,96 32,96C49.7,96 64,110.3 64,128L64,400C64,408.8 71.2,416 80,416C88.8,416 96,408.8 96,400L96,96ZM160,120L160,200C160,213.3 170.7,224 184,224L296,224C309.3,224 320,213.3 320,200L320,120C320,106.7 309.3,96 296,96L184,96C170.7,96 160,106.7 160,120ZM368,112C368,120.8 375.2,128 384,128L432,128C440.8,128 448,120.8 448,112C448,103.2 440.8,96 432,96L384,96C375.2,96 368,103.2 368,112ZM368,208C368,216.8 375.2,224 384,224L432,224C440.8,224 448,216.8 448,208C448,199.2 440.8,192 432,192L384,192C375.2,192 368,199.2 368,208ZM160,304C160,312.8 167.2,320 176,320L432,320C440.8,320 448,312.8 448,304C448,295.2 440.8,288 432,288L176,288C167.2,288 160,295.2 160,304ZM160,400C160,408.8 167.2,416 176,416L432,416C440.8,416 448,408.8 448,400C448,391.2 440.8,384 432,384L176,384C167.2,384 160,391.2 160,400Z" style="fill:rgb(245,200,0);fill-rule:nonzero;"/>
        </g>
    </g>
</svg>
